X:1
T:Title
%%score { ( 1 4 ) | ( 2 3 ) }
L:1/8
M:6/8
K:G
V:1 treble nm="Grand Piano"
V:4 treble 
V:2 treble 
V:3 treble 
V:1
 z3 z2[Q:1/4=100] D | G>GG BAG | [EG]3 [CE]2 [CE]/[CE]/ | [B,D][DG]A BcB | A3- A z D/D/ | %5
 G>GG BAG | [EG]3 [CE]2 [Ec] | [DB]>[Ec]B AEF | [B,G]3- [B,G] z [=FG] | %9
 [Ec]>[Ec][Ec] [Ec][EG][^DA] | B3 G2 B | A>AA ^cB[Gc] | [Fd]3- [Fd] z [Fd] | dBc d2 [DG]/[DG]/ | %14
 [CA][CA][EB] [Ec]2 [EA]/[EA]/ | G>GG A>GF |[M:5/8] [B,DG]- [B,DG]3 z |[M:1/8] d | %18
[M:3/4] d>B dd Bd | e4 z2 | d>c BB AG | A4 z D | [B,G]2 [B,G]/[B,G]/ [DB]2 [G,DG]/[G,DG]/ | %23
[M:7/8] [CEA][CEA][E^GB] [EAc]3 [=Ge] |[M:3/4] [Gd]>c BA EF |[M:5/8] G-G- G3 |] %26
V:2
 z3 z2 [G,B,] | [G,B,D]>[G,B,D][G,B,D] [G,DG][K:bass][G,CD][G,B,D] | [C,C]3 [C,G,]2 [C,G,] | %3
 [G,,G,][B,,G,][D,F,D] [G,D][D,A,D][D,G,D] | [D,F,D]3- [D,F,D] z [F,C]/[F,C]/ | %5
 [G,B,D]>[G,B,D][G,B,D] [G,D][G,CD][G,B,D] | [C,C]3 [C,G,]2 [C,G,] | %7
 [D,G,]>[D,G,][D,G,D] [D,F,C][D,G,C][D,A,C] | [G,,G,]3- [G,,G,] z [G,B,] | %9
 [C,G,]>[C,G,][C,G,] [C,G,][C,G,][C,F,] | D6[K:treble] | %11
 [A,DF]>[A,DF][A,DF] [A,G][A,G][K:bass][A,,A,] | [D,A,]3- [D,A,] z [D,A,] | %13
 [G,B,G][G,G][G,A,G] [G,B,G]2[K:bass] [B,,G,]/[B,,G,]/ | %14
 [C,E,][C,E,][B,,^G,] [A,,A,]2 [C,A,]/[C,C]/ | [D,B,D]>[D,B,D][D,B,D] [D,CD]>[D,B,D][D,A,D] | %16
[M:5/8] G,,- G,,3 z |[M:1/8][K:treble] [G,B,G] | %18
[M:3/4] [G,B,G]>[G,DG] [G,B,G][G,B,G] [G,DG][G,B,G] | C4 z2 | %20
 [G,B,G]>[G,A,D][K:bass] [G,D][E,G,^C] [E,G,C][E,G,C] | [D,F,D]4 z [D,F,C] | %22
 [G,,G,]2 [G,,G,]/[G,,G,]/ [G,,G,]2 B,,/B,,/ |[M:7/8] C,C,B,, A,,3 [C,C] | %24
[M:3/4] [D,B,]>[D,A,D] [D,G,D][D,F,C] [D,A,C][D,CD] |[M:5/8] z z/ G,/C B,2 |] %26
V:3
 x6 | x4[K:bass] x2 | x6 | x6 | x6 | x6 | x6 | x6 | x6 | x6 | G,3 [G,B,]2[K:treble] [G,DG] | %11
 x5[K:bass] x | x6 | x5[K:bass] x | x6 | x6 |[M:5/8] x5 |[M:1/8][K:treble] x |[M:3/4] x6 | %19
 C,4- C,[C,C] | x2[K:bass] x4 | x6 | x6 |[M:7/8] x7 |[M:3/4] x6 |[M:5/8] G,,-G,,- G,,3 |] %26
V:4
 x6 | x6 | x6 | x6 | x6 | x6 | x6 | x6 | x6 | x6 | x6 | x6 | x6 | x6 | x6 | x6 |[M:5/8] x5 | %17
[M:1/8] x |[M:3/4] x6 | G3- [EGc]2 [Ge] | x6 | x6 | x6 |[M:7/8] x7 |[M:3/4] x6 | %25
[M:5/8] [B,D]>B,E D2 |] %26

